assets/svg/icon-ui-integration-blue.svg

<?xml version="1.0" encoding="UTF-8" standalone="no"?>
<svg width="76px" height="30px" viewBox="0 0 76 30" version="1.1" xmlns="http://www.w3.org/2000/svg" xmlns:xlink="http://www.w3.org/1999/xlink">
    <!-- Generator: Sketch 3.8.3 (29802) - http://www.bohemiancoding.com/sketch -->
    <title>blue/icon-ui-integration-blue</title>
    <desc>Created with Sketch.</desc>
    <defs></defs>
    <g id="blue,-base" stroke="none" stroke-width="1" fill="none" fill-rule="evenodd">
        <g id="icons,-utility-(blue)" transform="translate(-103.000000, -1038.000000)" fill="#1055FF">
            <g id="blue/icon-ui-integration-blue" transform="translate(103.000000, 1038.000000)">
                <g id="HL7-Icon">
                    <g id="PaaS">
                        <g id="eip_v.1.1_2015-06-06_Kris">
                            <g id="Features">
                                <g id="Prod-List">
                                    <g id="Integrate">
                                        <g id="HL7-Icon">
                                            <path d="M25.9937488,20.2485396 L14.813096,20.2485396 L14.813096,28.204567 C14.813096,29.9428384 13.8796033,30.3896618 12.5609925,29.2050978 L1.21748877,17.1456889 C-0.100284783,15.9603212 -0.065959042,14.0388201 1.25181451,12.854256 L12.5450855,0.79565079 C13.862859,-0.39052057 14.813096,0.057910066 14.813096,1.79537788 L14.813096,9.80123092 L25.9375158,9.80123092 C25.766666,9.95936958 25.5599088,10.0664976 25.3519584,10.0834514 L23.5148638,10.2210678 C23.2499346,10.2210678 22.8709596,10.4606326 22.8709596,10.7552439 L22.8709596,19.1720768 C22.8709596,19.466969 23.2499346,19.7065336 23.5148638,19.7065336 L25.268695,19.8433074 C25.5267704,19.864174 25.7961624,20.0242488 25.9937488,20.2485396 L25.9937488,20.2485396 Z M50.479783,20.2485396 L61.1996256,20.2485396 L61.1996256,28.204567 C61.1996256,29.9428384 62.091084,30.3896618 63.3609084,29.2050978 L74.21566,17.1456889 C75.486291,15.9603212 75.4516008,14.0388201 74.1817766,12.854256 L63.3786568,0.79565079 C62.1088326,-0.39052057 61.1996256,0.057910066 61.1996256,1.79537788 L61.1996256,9.80123092 L50.8674228,9.80123092 C50.9629866,9.84629982 51.0627038,9.87486804 51.1627252,9.8826089 L52.8055386,10.0210678 C53.07072,10.0210678 53.0396854,10.2606326 53.0396854,10.5552439 L52.8396854,19.3720768 C52.8396854,19.666969 52.87072,19.9065336 52.6055386,19.9065336 L50.9740794,20.04415 C50.8015776,20.0575164 50.6302428,20.1330782 50.479783,20.2485396 L50.479783,20.2485396 Z" id="Fill-12"></path>
                                            <path d="M38.1570894,20.8898516 C35.1855932,20.8898516 32.7684298,18.199031 32.7684298,14.8920261 C32.7684298,11.5841787 35.1855932,8.89363886 38.1570894,8.89363886 C41.1280812,8.89363886 43.5457492,11.5841787 43.5457492,14.8920261 C43.5457492,18.199031 41.1280812,20.8898516 38.1570894,20.8898516 L38.1570894,20.8898516 L38.1570894,20.8898516 Z M47.1328904,11.690059 C46.9792316,11.1530745 46.7874732,10.634626 46.5614004,10.139488 C46.3716606,9.72467304 46.4135446,9.11972284 46.6875572,8.76809906 L47.8804954,7.2371875 C48.0682168,7.0285162 48.0356682,6.72576026 47.847947,6.5173698 L45.7767054,4.21131316 C45.588984,4.0029227 45.3174948,3.9666931 45.1297734,4.17564524 L43.777373,5.48159622 C43.4614766,5.78659896 42.921021,5.82788386 42.5513816,5.61078706 C42.093685,5.34173308 41.614037,5.1134023 41.11597,4.93000746 C40.719081,4.78396564 40.3643282,4.32224878 40.3343028,3.85800428 L40.20966,1.98473696 C40.20966,1.68956396 39.9946888,1.60896012 39.7295074,1.60896012 L36.8003998,1.60896012 C36.5347136,1.60896012 36.3194902,1.68956396 36.3194902,1.98473696 L36.198632,3.8282342 C36.1686066,4.29219786 35.81234,4.73200844 35.4121708,4.86709714 C34.8810508,5.04656008 34.3698636,5.27039726 33.8831508,5.54619164 C33.5104838,5.7573906 32.9670004,5.7082419 32.651104,5.40352 L31.3688466,4.16413042 C31.18163,3.95573996 30.8980296,3.97792708 30.7103084,4.18631754 L28.6390668,6.49153164 C28.4513454,6.70076464 28.4306558,7.01587796 28.618377,7.22454928 L29.709633,8.62486572 C29.9833932,8.97648952 30.0204832,9.57806952 29.8244356,9.98923342 C29.5675804,10.5293073 29.3518524,11.0971854 29.1817932,11.6878122 C29.0541224,12.130993 28.6420946,12.5272719 28.2252726,12.5612547 L26.3881778,12.6988711 C26.1232486,12.6988711 25.7442738,12.9384358 25.7442738,13.2330471 L25.7442738,16.4942735 C25.7442738,16.7891657 26.1232486,17.0287304 26.3881778,17.0287304 L28.1420092,17.1655042 C28.558831,17.1992062 29.0051736,17.5960468 29.1308258,18.0400701 C29.3026512,18.6503564 29.5415922,19.2364896 29.8060168,19.7931338 C30.001812,20.2045784 29.9733006,20.8055968 29.6992882,21.1572206 L28.6251896,22.5418094 C28.4377206,22.7504808 28.4720352,23.0529558 28.6597564,23.261908 L30.732512,25.567403 C30.9202332,25.7760742 31.1922272,25.812023 31.3799484,25.6036326 L32.647067,24.3805322 C32.9629634,24.0755296 33.5059422,24.029751 33.8786092,24.2412308 C34.3665836,24.5181486 34.8790324,24.749007 35.4111616,24.9290316 C35.8113308,25.0638394 36.1675974,25.5174118 36.1966134,25.9816562 L36.3194902,27.9686676 C36.3194902,28.2638406 36.5347136,28.5705284 36.8003998,28.5705284 L39.7295074,28.5705284 C39.9946888,28.5705284 40.20966,28.2638406 40.20966,27.9686676 L40.3363214,25.9516054 C40.3653374,25.48708 40.7195856,25.0121632 41.116727,24.8658404 C41.6160554,24.6821648 42.096965,24.4470936 42.5554186,24.177197 C42.9248056,23.9595386 43.4655136,23.9971724 43.78141,24.3021752 L45.1184194,25.5921178 C45.3061406,25.8010698 45.5657712,25.7510786 45.7534926,25.5418456 L47.8247342,23.2360698 C48.0127078,23.0276794 48.056358,22.7378426 47.8691414,22.5291712 L46.6880618,21.0139872 C46.4140492,20.6623634 46.3726698,20.0576942 46.561905,19.6428792 C46.795295,19.1306094 46.9926042,18.5941865 47.1487862,18.0381041 C47.2739338,17.5940808 47.6839432,17.1986445 48.1007652,17.1663468 L49.7322244,17.0287304 C49.9974058,17.0287304 49.9663712,16.7891657 49.9663712,16.4942735 L49.9663712,13.2330471 C49.9663712,12.9384358 49.9974058,12.6988711 49.7322244,12.6988711 L48.089411,12.5604122 C47.6720844,12.5281145 47.2600566,12.1332398 47.1328904,11.690059 L47.1328904,11.690059 Z" id="Fill-11"></path>
                                        </g>
                                    </g>
                                </g>
                            </g>
                        </g>
                    </g>
                </g>
            </g>
        </g>
    </g>
</svg>

<svg width="76" height="30" viewBox="0 0 76 30" xmlns="http://www.w3.org/2000/svg"><title>blue/icon-ui-integration-blue</title><g fill="#1055FF" fill-rule="evenodd"><path d="M25.994 20.249h-11.18v7.956c0 1.738-.934 2.185-2.253 1L1.217 17.145c-1.317-1.185-1.283-3.106.035-4.29L12.545.794c1.318-1.186 2.268-.737 2.268 1v8.006h11.125c-.171.158-.378.265-.586.282l-1.837.138c-.265 0-.644.24-.644.534v8.417c0 .295.379.535.644.535l1.754.136c.258.021.527.181.725.406zm24.486 0H61.2v7.956c0 1.738.891 2.185 2.16 1l10.856-12.06c1.27-1.185 1.236-3.106-.034-4.29L63.379.794c-1.27-1.186-2.18-.737-2.18 1v8.006H50.868a.848.848 0 0 0 .296.082l1.643.138c.265 0 .234.24.234.534l-.2 8.817c0 .295.03.535-.234.535l-1.632.137a.947.947 0 0 0-.494.205z"/><path d="M38.157 20.89c-2.971 0-5.389-2.691-5.389-5.998 0-3.308 2.418-5.998 5.39-5.998 2.97 0 5.388 2.69 5.388 5.998 0 3.307-2.418 5.998-5.389 5.998zm8.976-9.2a11.06 11.06 0 0 0-.572-1.55c-.19-.415-.147-1.02.127-1.372l1.192-1.53c.188-.21.156-.512-.032-.72L45.777 4.21c-.188-.208-.46-.244-.647-.035l-1.353 1.306c-.316.305-.856.346-1.226.129a8.902 8.902 0 0 0-1.435-.681c-.397-.146-.752-.608-.782-1.072l-.124-1.873c0-.295-.215-.376-.48-.376H36.8c-.265 0-.48.08-.48.376l-.121 1.843c-.03.464-.387.904-.787 1.04a8.817 8.817 0 0 0-1.529.678c-.373.211-.916.162-1.232-.142l-1.282-1.24c-.187-.208-.471-.186-.659.022l-2.07 2.306c-.189.209-.21.524-.022.733l1.092 1.4c.273.351.31.953.114 1.364-.256.54-.472 1.108-.642 1.699-.128.443-.54.84-.957.873l-1.837.138c-.265 0-.644.24-.644.534v3.261c0 .295.38.535.644.535l1.754.137c.417.033.863.43.989.874.172.61.41 1.196.675 1.753.196.412.167 1.013-.107 1.364l-1.074 1.385c-.187.208-.153.511.035.72l2.073 2.305c.187.21.46.245.647.037l1.267-1.223c.316-.305.859-.351 1.232-.14.488.277 1 .508 1.532.688.4.135.757.588.786 1.053l.122 1.987c0 .295.216.602.481.602h2.93c.265 0 .48-.307.48-.602l.126-2.017c.03-.465.384-.94.78-1.086.5-.184.981-.419 1.44-.689.369-.217.91-.18 1.225.125l1.337 1.29c.188.21.448.16.635-.05l2.072-2.306c.188-.208.231-.498.044-.707l-1.18-1.515c-.275-.352-.316-.956-.127-1.371.233-.512.43-1.049.587-1.605.125-.444.535-.84.952-.872l1.631-.137c.265 0 .234-.24.234-.535v-3.261c0-.295.031-.534-.234-.534l-1.643-.139c-.417-.032-.829-.427-.956-.87z"/></g></svg>
